X: 5
T: In Memory Of Coleman
R: reel
M: 4/4
L: 1/8
K: Gmin
D3d cBGF | D ~F3 GFDF | G2Bc dfga | bagf dfga |
bagf gfdc | d2BG FDCD | FGBd cABc |1 dgdc BGGF :|2 dgdc BGGA ||
~B3d fgfg | e ~c3 A ~F3 | [GB]dga fdcA | FGdc BGGA |
~B2fB FBfB | DBfB AFFA | GABc dgag | fdcA BGGA |
~B3d fgfg | e ~c3 A ~F3 | [GB]dga fdcA | FGdc BGGA |
~B2fB FBfB | aBfB AFFA | GABc dgag | fdcA BGG2 |]


Tune 619	Setting 13637

